X:1
T: Mr. Duncan McKerracher
C:Alexander Walker
R:Strathspey
Q: 128
K:Em
M:4/4
L:1/16
|:F2|E3B, E3F GFGA B3c|d3e f3d AF3 D3F|E3B, E3F G3A Bc3|d3A BAGF GE3 E2F2|
E3B, E3F GFGA B3c|d3e f3d AF3 D3F|E3B, E3F G3A Bc3|d3A BAGF GE3 E2d2|
efgf e3E G3E B3E|F3D d3A F3D D3d|efgf e3E G3E B3A|B3e df3 ge3 e2d2|
efgf e3E G3E B3E|F3D d3A F3D D3d|e3f g3e f3d e3c|d3A BAGF GE3 E2:|
